X:13031
T:My Old Man, Said Follow the Van
T:Don't dilly dally on the way
R:March
C:Fred W. Leigh 1919
O:England
Z:Paul Hardy's Session Tunebook 2015 (see www.paulhardy.net). Creative Commons cc by-nc-sa licenced.
M:4/4
L:1/8
Q:1/4=120
K:G
"G"d2 e2 B3 G|"Em"A B2 A E3 E|"D"F2 d>e dcAA|"G"B8|B2 Bc B2 AG|"A"A2 B2 A G3|"A7"A2 AB A2 GE|"D"F2 G2 Ad2B|
"G"d d2 B c d3|d d2 Bc d3|d>e dB AG EG|"D"A6 D2|"G"G2 GA B2 AG|"Am"A2 B2 cA Bc|"D"d2 e2 B2 A2|"G"G8|]

